svgs/sharp-solid/id-card.svg

<svg xmlns="http://www.w3.org/2000/svg" viewBox="0 0 576 512"><!--! Font Awesome Pro 6.6.0 by @fontawesome - https://fontawesome.com License - https://fontawesome.com/license (Commercial License) Copyright 2024 Fonticons, Inc. --><path d="M0 32L0 96l576 0 0-64L0 32zm0 96L0 480l576 0 0-352L0 128zM64 416l32-64 160 0 32 64L64 416zM176 192a64 64 0 1 1 0 128 64 64 0 1 1 0-128zm176 0l16 0 128 0 16 0 0 32-16 0-128 0-16 0 0-32zm0 64l16 0 128 0 16 0 0 32-16 0-128 0-16 0 0-32zm0 64l16 0 128 0 16 0 0 32-16 0-128 0-16 0 0-32z"/></svg>

<svg xmlns="http://www.w3.org/2000/svg" viewBox="0 0 576 512"><!--! Font Awesome Pro 6.4.0 by @fontawesome - https://fontawesome.com License - https://fontawesome.com/license (Commercial License) Copyright 2023 Fonticons, Inc. --><path d="M0 32V96H576V32H0zm0 96V480H576V128H0zM64 416l32-64H256l32 64H64zM176 192a64 64 0 1 1 0 128 64 64 0 1 1 0-128zm176 0h16H496h16v32H496 368 352V192zm0 64h16H496h16v32H496 368 352V256zm0 64h16H496h16v32H496 368 352V320z"/></svg>
